X: 1
T: The Humours Of Ballyloughlin
T: The Humours Of Derryloughlin
T: The Hurler's March
M: 6/8
L: 1/8
K: Dmix
A/^c/AA"D" AGE|"D"GED !roll!D3|"C"c2 A "G"dfd|"C"cAG "G"FED|
"D"A/^c/AA AGE|"C"!roll!G3 cGE|"G" !roll!D3 DFA|"D" !roll!D3  !roll!D3:|]
B|"C"c3  c2 B|"C"cAG ABc|"D"ded  ded|"D"dAF DFA|
"C"cBc  "G"dcB|"C"cAG "A7"FGE|"G"!roll!D3 DFA|"D"!roll!D3 !roll!D3 :|]
e|"D"fdd ged|"D"ufdd uged|"C"c2 e ged|"C"cde  ged|
"D" ufdd uged|"D"f2 a  ged|"C"cde "G"gag| "A"edc "D"d2 :|]
B|"D"A2 D A2 G|"D"!roll!F3 GED|"A7"!roll!E3 EFD|"A7"!roll!E3 EFG|
"D"!roll!A3 dAG|"D"!roll!F3 "A7"GEA|"G"!roll!D3  DFA|"D" !roll!D3 !roll!D3 :|]

